X:423
T:Catch Club,The. (p).1701.PLFD.423
M:6/4
L:1/4
Q:3/4=90
S:Playford, Dancing Master,11th Ed.,1701.
O:England
N:Glee Club?.
Z:Chris Partington.
K:A
g|(a<A)Bc2d|(e<E)FG2A|B>cdecd|B3-B2:||:a|a<efg>fg|
a<cde>f=g|fdfecA|G/A/Bbg>fg|a<ABB2A|A3-A2:|
